X:1
T:Title
%%score { 1 | 2 }
L:1/8
M:4/4
K:C
V:1 treble nm="Grand Piano"
V:2 bass 
V:1
 z4 z2[Q:1/4=116] [CE][CDF] | [CEG]4 [B,FG]4 | [CEG]2 [EGc]4 [CEG][CE^G] | [CFA]4 [^CGA]4 | %4
 [DFd]6 [Fc]2 | [CFc]2 [CFA]2 [CFA]2 [CFc]2 | [DFc]2 [DFB]4 [B,DF]2 | [B,FA]4 [B,F^G]4 | %8
 [CEG]6 [CE][CDF] | [CEG]4 [B,FG]4 | [CEG]2 [EGc]4 [CEG][CE^G] | [CFA]4 [^CGA]4 | [DFd]6 c2 | %13
 c2 A2 A2 c2 | c2 B4 G2 | A4 [FGB]4 |[M:3/4] [EGc]6 |] %17
V:2
 z4 z2 C,C, | C,4 D,4 | E,2 C,4 C,C, | F,4 E,4 | D,6 A,2 | A,2 F,2 E,2 A,2 | G,2 G,4 G,2 | %7
 G,4 G,4 | C,6 C,C, | C,4 D,4 | E,2 C,4 C,C, | F,4 E,4 | D,6[K:treble] [A,F]2 | %13
 [A,CF]2 [F,CF]2 [F,CF]2 [A,CF]2 | [G,DF]2 [G,DF]4 [CE]2 | [F,CF]4 D,4 |[M:3/4] C,6 |] %17

